X:14405
H:
T:The Thistle of Scotland (a.k.a. Badge of Scotland)
C:Frederick Wilson Whitehead (1902)
B:Songs of the Highlands, Inverness: Logan & Company, 1902
O:Kevin Fraser
Z:Kevin Fraser
Q:1/4=90
K:HP
M:4/4
L:1/8
R:March
U: R = ///
U: r = //
U: V = !accent!
V:M gstem=up stem=down name="Melody"
V:H gstem=up stem=down name="Harmony"
V:C gstem=up stem=down name="C-Harmony"
V:S gstem=up stem=down dyn=up stafflines=1 clef=perc middle=G name="Snare" sname="Snare"" sname="Snare"
V:B gstem=up stem=down clef=none dyn=up name="Bass"
V:T gstem=up stem=down clef=none dyn=up name="Tenor"
V:BB gstem=up stem=down name="Brass Bass" sname="ABCD-C" transpose=-1  octave=-1 clef=bass
V:BC gstem=up stem=down name="Brass Chord" sname="ABCD-D" transpose=-1
V:BD gstem=up stem=down name="Brass Chord 2" sname="ABCD-B" transpose=-1
V:P gstem=up stem=down name="Piano" octave=-1
I:MIDI=program 110
I:linebreak $
% %score {M H}
%%MIDI program 109 #bagpipes
%%MIDI vol 100
%%landscape
[V:M][| {g}A3/2B/2 | {Gdc}d2  {g}df {Gdc}d2 {g}dB | {g}A2  {GdGe}A{d}B {gAGAG}A2 {Gdc}d>e | {gfg}f2 {g}ed {ag}a2 df | {g}e2 {GdG}ef {gef}e2 {g}A>B |  $
[V:M]              | {Gdc}d2  {g}df {Gdc}d2 {g}dB | {g}A2  {GdGe}A{d}B {gAGAG}A2 {Gdc}d>e | {g}fa   fa    {AGAG}A2 {g}f>e | {Gdc}d2 {g}d>e  {Gdc}d2|]  $
[V:M][  {g}d>e     | {g}f2    {e}fa {fg}f2  {g}ed | {g}B2  {GdGe}B{d}d {g}A2     {Gdc}d>e | {gfg}f2 {g}ed {ag}a2 df | {g}e2 {GdG}ef {gef}e2 {g}A>B |  $
[V:M]              | {Gdc}d>e {g}fa {fg}f2  {g}ed | {g}B2  {GdGe}B{d}d {g}A2     {Gdc}d>e | {g}fa   fa    {AGAG}A2 {g}f>e | {Gdc}d2 {g}d>e  {Gdc}d2|] $
W: O, the Thistle o’ Scotland was famous of auld,
W: Wi’ its toorie[3] sae snod[4] and its bristles sae bauld;
W: ’Tis the badge o’ my country – it’s aye dear to me;
W: And the thocht o’ them baith brings the licht to my e’e.


